X: 21804
Q: "Jig."
M: 9/8
L: 1/8
K: F
|:\
c2B AFA AFA | c2B AFA B2G |\
c2B AFA AFA | BAB [G2C2]A B2G :| \
|:\
[1 FAc fcA fcA | BAB G2A B2G :|\
[2 FAc fag fcA | {c}BAB G2A B2G |]


